!!!COM: Stadler, Maximilian
!!!CDT: 1748///-1833///
!!!COA: Haydn, Joseph
!!!OTL@@IT: Gioco filarmonico
!!!OTL@EN: Philharmonic Joke
!!!OTA@@IT: o sia maniera facile per comporre un infinito numero de minuetti e trio anche senza sapere il contrapunto
!!!OTA@EN: or the Art of Composing an Infinite Number of Minutes Without the Least Knowledge of Counterpoint
!!!PDT: 1781///
!!!PPR: Artaria
!!!SML: Gesellschaft der Musikfreundes, Vienna
!!!PPR2: Luigi Marescalchi
!!!PPP2: Napoli
!!!PDT2: 1790///
**kern	**kern	**kern
*Icello	*Ivioln	*Ivioln
*>[A,A,B,B,A]	*>[A,A,B,B,A]	*>[A,A,B,B,A]
*>norep[A,B]	*>norep[A,B]	*>norep[A,B]
*>A	*>A	*>A
*k[]	*k[]	*k[]
*M3/4	*M3/4	*M3/4
*MM120	*MM120	*MM120
!!section:  I
!!measure:  A
!!diceroll: 10
=98	=98	=98
4C	4e	4cc
4E	4g	16b
.	.	8.cc
4E	4g	16b
.	.	8.cc
!!section:  I
!!measure:  B
!!diceroll: 11
=87	=87	=87
8BB	12B	4gg
.	12d	.
8r	.	.
.	12g	.
8BB	12B	16gg
.	.	16ff
.	12d	.
8r	.	16ee
.	12g	.
.	.	16dd
8BB	12c	4e
.	12e	.
8r	.	.
.	12g	.
!!section:  I
!!measure:  C
!!diceroll: 8
=171	=171	=171
4A	4c	4ff
4B	4d	16gg
.	.	16ff
.	.	16ee
.	.	16dd
4c	4g	16ff
.	.	16ee
.	.	16dd
.	.	16cc
!!section:  I
!!measure:  D
!!diceroll: 6
=45	=45	=45
4GG	16g	16b
.	16b	16dd
.	16a	16cc
.	16g	16b
4D	16b	16dd
.	16a	16cc
.	16g	16b
.	16f#	16a
4G	4g	4b
!!section:  I
!!measure:  E
!!diceroll: 6
=80	=80	=80
2F#	[4a	[4cc
.	12a]	12cc]
.	12cc	12ee
.	12b	12dd
4D	12a	12cc
.	12g	12b
.	12f#	12a
!!section:  I
!!measure:  F
!!diceroll: 10
=129	=129	=129
4B	4g	8gg
.	.	8dd
4A	4f#	16ee
.	.	16dd
.	.	8cc
4G	4g	16dd
.	.	16cc
.	.	8b
!!section:  I
!!measure:  G
!!diceroll: 5
=159	=159	=159
4C	16b	16dd
.	16a	16cc
.	16cc	16ee
.	16a	16cc
4D	4g	4b
4DD	4f#	4a
!!section:  I
!!measure:  H
!!diceroll: 8
=127	=127	=127
8G	2.g	2.g
8GG	.	.
8BB	.	.
8D	.	.
4G	.	.
*>B	*>B	*>B
!!section:  II
!!measure:  A
!!diceroll: 5
=90	=90	=90
12C	4e	4g
12E	.	.
12G	.	.
12C	4ee	4gg
12E	.	.
12G	.	.
12AA	4cc#	4ee
12E	.	.
12A	.	.
!!section:  II
!!measure:  B
!!diceroll: 10
=77	=77	=77
8D	8d	8dd
8A	8a	8a
8G	8g	8g
8F	8f	8f
8E	8e	8e
8D	8d	8d
!!section:  II
!!measure:  C
!!diceroll: 3
=126	=126	=126
8GG	2dd	2ff
8G	.	.
8BB	.	.
8G	.	.
8GG	8cc	8ee
8G	8b	8dd
!!section:  II
!!measure:  D
!!diceroll: 5
=34	=34	=34
4E	2.g	8gg
.	.	8cc
4F	.	16b
.	.	16cc
.	.	16dd
.	.	16b
4E	.	4cc
!!section:  II
!!measure:  E
!!diceroll: 7
=101	=101	=101
4F	4d	12aa
.	.	12ee
.	.	12ff
4r	4r	12aa
.	.	12ee
.	.	12ff
4r	4r	12aa
.	.	12ff
.	.	12dd
!!section:  II
!!measure:  F
!!diceroll: 7
=162	=162	=162
2GG	8f	8b
.	8dd	8ff
.	8g	8ee
.	8f	8dd
4AA	4e	16dd
.	.	16cc
.	.	16b
.	.	16cc
!!section:  II
!!measure:  G
!!diceroll: 3
=116	=116	=116
4G	12a	12ff
.	12ff	12aa
.	12dd	12ff
4A	4cc	4ee
4GG	4cc	4dd
!!section:  II
!!measure:  H
!!diceroll: 6
=93	=93	=93
4C	2.cc	2.cc
8E	.	.
8G	.	.
4c	.	.
*-	*-	*-
!!!END: 2004/11/01/
